src/assets/icons/blue/wallet.svg

<svg width="25" height="26" viewBox="0 0 25 26" fill="none" xmlns="http://www.w3.org/2000/svg">
<path d="M1.5 7.89078L1.50537 22.0498C1.50537 23.6695 2.81835 24.9824 4.43799 24.9824H20.5674C22.187 24.9824 23.5 23.6695 23.5 22.0498V10.3194C23.5 8.96965 22.4059 7.8755 21.0562 7.8755H1.52156C1.51186 7.8755 1.50322 7.88163 1.5 7.89078ZM1.5 7.89078C1.5009 7.61627 18.0013 1.01746 18.0013 1.01746V7.20345M17.6539 16.1654L17.6348 16.1846" stroke="#39578A" stroke-width="2" stroke-linecap="round" stroke-linejoin="round"/>
</svg>

<svg xmlns="http://www.w3.org/2000/svg" width="25" height="26" fill="none"><path stroke="#39578A" stroke-linecap="round" stroke-linejoin="round" stroke-width="2" d="m1.5 7.89.005 14.16a2.933 2.933 0 0 0 2.933 2.932h16.13A2.933 2.933 0 0 0 23.5 22.05V10.32a2.444 2.444 0 0 0-2.444-2.445H1.522a.02.02 0 0 0-.022.016m0 0c0-.274 16.501-6.873 16.501-6.873v6.186m-.347 8.962-.02.02"/></svg>
